Resources/Private/Icons/solid/magnifying-glass-chart.svg

<svg xmlns="http://www.w3.org/2000/svg" viewBox="0 0 512 512"><!--! Font Awesome Free 6.2.0 by @fontawesome - https://fontawesome.com License - https://fontawesome.com/license/free (Icons: CC BY 4.0, Fonts: SIL OFL 1.1, Code: MIT License) Copyright 2022 Fonticons, Inc. --><path d="M416 208c0 45.9-14.9 88.3-40 122.7L502.6 457.4c12.5 12.5 12.5 32.8 0 45.3s-32.8 12.5-45.3 0L330.7 376c-34.4 25.2-76.8 40-122.7 40C93.1 416 0 322.9 0 208S93.1 0 208 0S416 93.1 416 208zm-312 8v64c0 13.3 10.7 24 24 24s24-10.7 24-24l0-64c0-13.3-10.7-24-24-24s-24 10.7-24 24zm80-96V280c0 13.3 10.7 24 24 24s24-10.7 24-24V120c0-13.3-10.7-24-24-24s-24 10.7-24 24zm80 64v96c0 13.3 10.7 24 24 24s24-10.7 24-24V184c0-13.3-10.7-24-24-24s-24 10.7-24 24z"/></svg>

<svg xmlns="http://www.w3.org/2000/svg" viewBox="0 0 512 512"><!--! Font Awesome Free 6.1.1 by @fontawesome - https://fontawesome.com License - https://fontawesome.com/license/free (Icons: CC BY 4.0, Fonts: SIL OFL 1.1, Code: MIT License) Copyright 2022 Fonticons, Inc. --><path d="M416 208C416 253.9 401.1 296.3 375.1 330.7L502.6 457.4C515.1 469.9 515.1 490.1 502.6 502.6C490.1 515.1 469.9 515.1 457.4 502.6L330.7 375.1C296.3 401.1 253.9 416 208 416C93.12 416 0 322.9 0 208C0 93.12 93.12 0 208 0C322.9 0 416 93.12 416 208zM104 280C104 293.3 114.7 304 128 304C141.3 304 152 293.3 152 280V216C152 202.7 141.3 192 128 192C114.7 192 104 202.7 104 216V280zM184 280C184 293.3 194.7 304 208 304C221.3 304 232 293.3 232 280V120C232 106.7 221.3 96 208 96C194.7 96 184 106.7 184 120V280zM264 280C264 293.3 274.7 304 288 304C301.3 304 312 293.3 312 280V184C312 170.7 301.3 160 288 160C274.7 160 264 170.7 264 184V280z"/></svg>
